public/static/img/crypto/EOS.svg

<svg width="48" height="48" viewBox="0 0 48 48" fill="none" xmlns="http://www.w3.org/2000/svg">
<g clip-path="url(#clip0_1150_15585)">
<path d="M47.9578 23.9994C47.9578 37.19 37.2651 47.8825 24.0747 47.8825C10.8842 47.8825 0.191528 37.19 0.191528 23.9994C0.191528 10.8089 10.8842 0.116211 24.0747 0.116211C37.2651 0.116211 47.9578 10.8089 47.9578 23.9994Z" fill="#4A4E57"/>
<path d="M14.9251 18.0728L16.7932 23.8337L11.5738 33.0113L14.9253 18.0731L14.9251 18.0728ZM31.356 23.8337L33.2243 18.0731L36.5756 33.011L31.356 23.8337ZM30.9242 25.1654L37.14 36.0943L24.9947 43.4494L30.9242 25.1654ZM23.155 43.4494L11.009 36.0946L17.2248 25.1656L23.1545 43.4496L23.155 43.4494ZM24.0747 13.1226L30.232 23.9488L24.0749 42.9352L17.9172 23.9486L24.0747 13.1223V13.1226ZM23.5579 11.9404L17.4854 22.6166L15.407 16.2078L23.5579 4.98033V11.9401V11.9404ZM24.5915 4.98033L32.7424 16.2078L30.6638 22.6168L24.5915 11.9401V4.98057V4.98033ZM38.3423 36.1626L33.8195 16.0041C33.8041 15.9354 33.7748 15.8707 33.7335 15.8137L24.4931 3.0852C24.4452 3.01919 24.3822 2.96547 24.3095 2.92842C24.2368 2.89138 24.1563 2.87207 24.0747 2.87207C23.9931 2.87207 23.9126 2.89138 23.8399 2.92842C23.7672 2.96547 23.7043 3.01919 23.6563 3.0852L14.4159 15.8135C14.3746 15.8704 14.3453 15.9352 14.3299 16.0038L9.80692 36.1626C9.78327 36.2684 9.79339 36.3788 9.83585 36.4785C9.87831 36.5782 9.95097 36.662 10.0436 36.7182L23.8067 45.0534C23.813 45.0567 23.8194 45.0593 23.8258 45.0629C23.8485 45.0756 23.8721 45.0864 23.8965 45.0952L23.9235 45.1047C23.9402 45.1095 23.9563 45.1131 23.973 45.1167C23.9813 45.1181 23.9897 45.1205 23.998 45.1217C24.0488 45.1293 24.1004 45.1293 24.1511 45.1217C24.1597 45.1205 24.1679 45.1181 24.1762 45.1164C24.1929 45.1133 24.2094 45.1093 24.2257 45.1045C24.2352 45.1016 24.244 45.0983 24.2534 45.0949C24.2679 45.0894 24.2825 45.0835 24.2968 45.0765C24.3059 45.0722 24.3147 45.0675 24.3238 45.0627C24.3298 45.0593 24.3362 45.0567 24.3424 45.0531L38.1058 36.7182C38.1985 36.662 38.2711 36.5782 38.3135 36.4785C38.356 36.3788 38.366 36.2683 38.3423 36.1626Z" fill="white"/>
</g>
<defs>
<clipPath id="clip0_1150_15585">
<rect width="48" height="48" fill="white"/>
</clipPath>
</defs>
</svg>

<svg width="48" height="48" fill="none" xmlns="http://www.w3.org/2000/svg"><g clip-path="url(#a)"><path d="M47.958 24c0 13.19-10.693 23.883-23.883 23.883S.192 37.19.192 23.998C.192 10.81 10.884.116 24.075.116 37.265.116 47.958 10.81 47.958 24Z" fill="#4A4E57"/><path d="m14.925 18.073 1.868 5.76-5.22 9.178 3.352-14.938Zm16.431 5.76 1.868-5.76 3.352 14.938-5.22-9.177Zm-.432 1.332 6.216 10.93-12.145 7.354 5.93-18.284ZM23.155 43.45l-12.146-7.354 6.216-10.93 5.93 18.285Zm.92-30.326 6.157 10.826-6.157 18.986-6.158-18.986 6.158-10.827Zm-.517-1.183-6.073 10.677-2.078-6.41 8.15-11.227v6.96Zm1.034-6.96 8.15 11.228-2.078 6.409L24.59 11.94V4.98Zm13.75 31.183-4.522-20.16a.517.517 0 0 0-.086-.19l-9.24-12.729a.517.517 0 0 0-.837 0l-9.24 12.728a.517.517 0 0 0-.086.19l-4.523 20.16a.518.518 0 0 0 .237.555l13.763 8.335.019.01a.474.474 0 0 0 .07.032l.027.01a.742.742 0 0 0 .05.012l.025.005a.56.56 0 0 0 .153 0l.025-.006a.495.495 0 0 0 .05-.011l.027-.01a.508.508 0 0 0 .044-.018l.027-.014.018-.01 13.764-8.335a.517.517 0 0 0 .236-.555Z" fill="#fff"/></g><defs><clipPath id="a"><path fill="#fff" d="M0 0h48v48H0z"/></clipPath></defs></svg>
